X: 32522
T: Planxty Crilly
R: jig
M: 6/8
K: Dmajor
D|FGA ABc|d2 B AFD|GAG FGF|EFA A3|
ABd dBd|efe f/e/de|d/e/fB AFA|d3 d2:|
|:B2|AFA AFA|B/A/FE DEF|AFA Bc/B/A/G/|
de/d/c/B/ cd/c/B/A/|B/A/B/c/d efd|c3 B3|
AFA AG/F/E|efe f/e/de|d/e/fB AFA|d3 d2:|

